icons/list-ordered-16.svg

<svg width="16" height="16" viewBox="0 0 16 16" xmlns="http://www.w3.org/2000/svg">
  <path fill-rule="evenodd" clip-rule="evenodd" d="M2.00337 2.50005C2.00337 2.32685 1.91375 2.16599 1.76648 2.07484C1.61921 1.9837 1.43526 1.97525 1.28025 2.05252L0.277079 2.55256C0.0299152 2.67576 -0.0705754 2.976 0.0526264 3.22317C0.175828 3.47033 0.476068 3.57082 0.723232 3.44762L1.00328 3.30802V6.00036H0.500155C0.223988 6.00036 0.00011001 6.22424 0.00011001 6.50041C0.00011001 6.77657 0.223988 7.00045 0.500155 7.00045H2.5065C2.78267 7.00045 3.00655 6.77657 3.00655 6.50041C3.00655 6.22424 2.78267 6.00036 2.5065 6.00036H2.00337V2.50005ZM5 3.25C5 2.83579 5.33579 2.5 5.75 2.5H14.25C14.6642 2.5 15 2.83579 15 3.25C15 3.66421 14.6642 4 14.25 4H5.75C5.33579 4 5 3.66421 5 3.25ZM5 8.25C5 7.83579 5.33579 7.5 5.75 7.5H14.25C14.6642 7.5 15 7.83579 15 8.25C15 8.66421 14.6642 9 14.25 9H5.75C5.33579 9 5 8.66421 5 8.25ZM5 13.25C5 12.8358 5.33579 12.5 5.75 12.5H14.25C14.6642 12.5 15 12.8358 15 13.25C15 13.6642 14.6642 14 14.25 14H5.75C5.33579 14 5 13.6642 5 13.25ZM0.924398 10.32L0.927032 10.3161C0.931315 10.3099 0.939805 10.2981 0.952393 10.2825C0.978004 10.2507 1.01787 10.2066 1.07075 10.1628C1.17619 10.0753 1.31709 10.0007 1.50025 10.0007C1.69557 10.0007 1.80717 10.0693 1.87542 10.1467C1.95169 10.2332 2.00312 10.366 2.00312 10.5231C2.00312 10.9755 1.73398 11.2053 1.20308 11.6005L1.16805 11.6265C0.6919 11.9803 0.000122071 12.4944 0.000122071 13.4999C0.000122071 13.6325 0.0528052 13.7597 0.146582 13.8535C0.240359 13.9473 0.367547 14 0.500167 14L2.50309 14C2.77926 14 3.00321 13.7761 3.00321 13.4999C3.00321 13.2238 2.77933 12.9999 2.50317 12.9999L1.14611 12.9999C1.27778 12.8026 1.49742 12.6281 1.80025 12.4027L1.84691 12.368C2.31766 12.0188 3.00321 11.5101 3.00321 10.5231C3.00321 10.1578 2.88489 9.77939 2.62556 9.48527C2.35821 9.18206 1.96836 9.00062 1.50027 9.00061C1.02002 9.0006 0.66087 9.20333 0.432114 9.39315C0.317894 9.48793 0.232132 9.58249 0.173885 9.65472C0.144543 9.69111 0.121547 9.72262 0.104827 9.74677C0.0964494 9.75887 0.0895948 9.76919 0.0842568 9.77744L0.0773676 9.78826L0.0747623 9.79245L0.0736683 9.79423L0.072939 9.79543C-0.070366 10.0315 0.00461413 10.3394 0.24069 10.4827C0.47501 10.625 0.779746 10.5519 0.924398 10.32ZM0.500117 10.0552L0.072939 9.79543C0.072939 9.79543 0.0727131 9.7958 0.500117 10.0552Z"/>
</svg>

<svg xmlns="http://www.w3.org/2000/svg" width="16" height="16" viewBox="0 0 16 16"><path fill-rule="evenodd" d="M2.003 2.5a.5.5 0 00-.723-.447l-1.003.5a.5.5 0 00.446.895l.28-.14V6H.5a.5.5 0 000 1h2.006a.5.5 0 100-1h-.503V2.5zM5 3.25a.75.75 0 01.75-.75h8.5a.75.75 0 010 1.5h-8.5A.75.75 0 015 3.25zm0 5a.75.75 0 01.75-.75h8.5a.75.75 0 010 1.5h-8.5A.75.75 0 015 8.25zm0 5a.75.75 0 01.75-.75h8.5a.75.75 0 010 1.5h-8.5a.75.75 0 01-.75-.75zM.924 10.32l.003-.004a.851.851 0 01.144-.153A.66.66 0 011.5 10c.195 0 .306.068.374.146a.57.57 0 01.128.376c0 .453-.269.682-.8 1.078l-.035.025C.692 11.98 0 12.495 0 13.5a.5.5 0 00.5.5h2.003a.5.5 0 000-1H1.146c.132-.197.351-.372.654-.597l.047-.035c.47-.35 1.156-.858 1.156-1.845 0-.365-.118-.744-.377-1.038-.268-.303-.658-.484-1.126-.484-.48 0-.84.202-1.068.392a1.858 1.858 0 00-.348.384l-.007.011-.002.004-.001.002-.001.001a.5.5 0 00.851.525zM.5 10.055l-.427-.26.427.26z"/></svg>
